packages/styles/assets/img/pv-images/redeem/dns.svg

<svg xmlns="http://www.w3.org/2000/svg" viewBox="0 0 65 44" enable-background="new 0 0 65 44"><style type="text/css">.st0{fill:#6F6F6F;}</style><path class="st0" d="M15.8-15.2c0-.5 0-.9-.1-1.4.1.4.1.9.1 1.4zM32.6 0c-14.8 0-27.4 9.1-32.5 22 5.1 12.9 17.7 22 32.5 22s27.4-9.1 32.5-22c-5.1-12.9-17.7-22-32.5-22zm0 36.7c-8.2 0-14.8-6.6-14.8-14.7s6.7-14.7 14.8-14.7 14.8 6.6 14.8 14.7-6.6 14.7-14.8 14.7zm5.3-21.9c0-2.9-2.3-5.2-5.2-5.2s-5.2 2.3-5.2 5.2v3.3c-1 1.1-1.5 2.4-1.5 3.9 0 3.6 2.9 6.5 6.6 6.5s6.6-2.9 6.6-6.5c0-1.5-.5-2.8-1.3-3.9v-3.3zm-8.5 1.6v-1.6c0-1.8 1.5-3.2 3.3-3.2 1.8 0 3.3 1.4 3.3 3.2v1.6c-1-.5-2.1-.9-3.3-.9-1.3 0-2.4.3-3.3.9z"/></svg>

<?xml version="1.0" encoding="utf-8"?>
<!-- Generator: Adobe Illustrator 22.1.0, SVG Export Plug-In . SVG Version: 6.00 Build 0)  -->
<svg version="1.1" id="Layer_1" xmlns="http://www.w3.org/2000/svg" xmlns:xlink="http://www.w3.org/1999/xlink" x="0px" y="0px"
	 viewBox="0 0 65 44" style="enable-background:new 0 0 65 44;" xml:space="preserve">
<style type="text/css">
	.st0{fill:#6F6F6F;}
</style>
<path class="st0" d="M15.8-15.2c0-0.5,0-0.9-0.1-1.4C15.8-16.2,15.8-15.7,15.8-15.2L15.8-15.2z"/>
<path class="st0" d="M32.6,0C17.8,0,5.2,9.1,0.1,22c5.1,12.9,17.7,22,32.5,22S60,34.9,65.1,22C60,9.1,47.4,0,32.6,0z M32.6,36.7
	c-8.2,0-14.8-6.6-14.8-14.7S24.5,7.3,32.6,7.3S47.4,13.9,47.4,22S40.8,36.7,32.6,36.7z M37.9,14.8c0-2.9-2.3-5.2-5.2-5.2
	s-5.2,2.3-5.2,5.2v3.3C26.5,19.2,26,20.5,26,22c0,3.6,2.9,6.5,6.6,6.5s6.6-2.9,6.6-6.5c0-1.5-0.5-2.8-1.3-3.9L37.9,14.8L37.9,14.8z
	 M29.4,16.4v-1.6c0-1.8,1.5-3.2,3.3-3.2c1.8,0,3.3,1.4,3.3,3.2v1.6c-1-0.5-2.1-0.9-3.3-0.9C31.4,15.5,30.3,15.8,29.4,16.4z"/>
</svg>
